X:9
T:The Parson of Brentford
%%VWML:RutherfordSelect-4785-p9-0
F:http://www.vwml.org/record/RutherfordSelect/4785/p9
Z:Transcribed by David Jacobs February 2016
S:12 Selected Country Dances 1772, John Rutherford
L:1/8
M:C|
K:A
V:1     clef=treble
V:2     clef=bass
V:1
ed|(cA)(dB) (ec)(fd)|{g}a2gf{f}e2(dc)|(dg)(bd) (Ac)(ac|(BA)(GF))E2(ed)|
(cA)(Bc) (de)(fg)|{g}a2gfe2a2|(gb)(ge) (fa)(f^d)|1 eBGBE2:|2e2e>ee2|| 
|:(ed)|(cd)(ef) {a}=g2(fe)|(fa)(Ac)d2(de)|(fe)(dc) (BA)(GF)|GABF EDCB,|(CE)(Ac) (BG)(FE)|(Fd)(ce)d2f2|ea!trill!gf ed!trill!cB|a2A>AA2:|
V:2
z2|A,,2"7"E,2A,,2D,2|C,2D,2C,2A,2|"6"B,2G,2A,2A,2|E,2E,2E,D,C,B,,|A,,2A,,2"6"B,,2B,,2|C,2D,2C,2C2|"6/4"B,2B,2B,,2B,,2|E,2E,2E,2:|E,2E,2E,2||
z2|A,,2A,,2A,,2A,,2|D,2A,,2D,2"6"F,2|D,2D,2^D,2D,2|E,2F,2G,2G,2|A,2A,,2E,2E,2|D,2E,2F,2D,2|C,2D,2E,2E,,2|A,,2A,,2A,,2:|
W:
W:The 1st Cu. lead thro
W:The 3rd Cu. cast up into the 2nd Cu. place
W:Hands orund fix .| lead up to the top cast off hands round back again all 6 :|
W:The Man goes the hey with the 3rd Cu.,his Partner with the 2nd Cu.
W:At the same time foot it to turn your Partner .|: by contrary sides
W:Foot it and turn your PArtner :|:

